X:300
T: Lil's Fancy
S: "Johnny O'Leary of Sliabh Luachra" (#194)
Z: B.Black
L: 1/8
M: 2/4
R: polka
K: D
d2 cd/c/|BA FA|EF/E/ FE|BA FA|
d/c/d/ cB/c/|BA FA|EF/E/ FE|F/E/D D2 :|
EF/G/ EF|BA FA|EF/G/ FE|BA FA|
dc/d/ cB/c/|BA FA|EF/G/ FE|F/E/D D2|
EF/G/ FE|BA FA|BE EF/A/|BA FA|
dc/d/ cB/c/|BA FA|EF/G/ FE|F/E/D D2||
